lib/icons/cursor.svg

<svg width="15" height="15" fill="none" xmlns="http://www.w3.org/2000/svg"><path fill-rule="evenodd" clip-rule="evenodd" d="M8 0v5H7V0h1ZM5 7H0v1h5V7Zm10 0h-5v1h5V7Zm-7 8v-5H7v5h1Z" fill="#7A859E"/></svg>

<svg width="15" height="15" viewBox="0 0 15 15" fill="none" xmlns="http://www.w3.org/2000/svg">
<path fill-rule="evenodd" clip-rule="evenodd" d="M8 0V5H7V0H8ZM5 7H0V8H5V7ZM15 7H10V8H15V7ZM8 15V10H7V15H8Z" fill="#7A859E"/>
</svg>
